X: 328
T: Miss Walsh's fancy
C: anon.
O: Ireland
B: Francis O'Neill: "The Dance Music of Ireland" (1907) no. 328
R: Double jig
Z: Transcribed by Frank Nordberg - http://www.musicaviva.com
F: http://www.musicaviva.com/abc/tunes/ireland/oneill-1001/oneill-1001-032
8.abc
M: 6/8
L: 1/8
K: A
EAA cAA|eAA cAA|EAA cAA|GAB BGE|EAA cAA|eAA cAA|aga ecA|BAA A3:|
|:aga ecA|cAc efg|aga ecA|BAF Ace|aga ecA|cAc efg|aga ecA|BAA A3:|
|:EAA cee|dff cee|EAA cee|BAF AFE|EAA cee|dff cee|aga ecA|BAA A3:|
W:
W:
W: From Musica Viva - http://www.musicaviva.com
W: the Internet center for free sheet music downloads.


